src/pos-icons/motorbike.svg

<svg height="24" viewBox="0 0 24 24" width="24" xmlns="http://www.w3.org/2000/svg"><path d="m17.42 10-4.01-4h-4.41v2h3.59l2 2h-8.09c-2.5 0-4.5 2-4.5 4.5s2 4.5 4.5 4.5c2.22 0 4.06-1.62 4.42-3.73l2.12-1.27c-.04.17-.04.33-.04.5 0 2.5 2 4.5 4.5 4.5s4.5-2 4.5-4.5-2-4.5-4.5-4.5m-8.66 5.26c-.34 1.01-1.26 1.74-2.37 1.74-1.38 0-2.5-1.12-2.5-2.5s1.12-2.5 2.5-2.5c1.12 0 2.03.74 2.37 1.75h-2.84v1.5zm8.63 1.74c-1.38 0-2.5-1.12-2.5-2.5s1.12-2.5 2.5-2.5a2.5 2.5 0 0 1 2.5 2.5 2.5 2.5 0 0 1 -2.5 2.5z"/></svg>

<?xml version="1.0" encoding="UTF-8"?><!DOCTYPE svg PUBLIC "-//W3C//DTD SVG 1.1//EN" "http://www.w3.org/Graphics/SVG/1.1/DTD/svg11.dtd"><svg xmlns="http://www.w3.org/2000/svg" xmlns:xlink="http://www.w3.org/1999/xlink" version="1.1" id="mdi-motorbike" width="24" height="24" viewBox="0 0 24 24"><path d="M17.42,10L13.41,6H9V8H12.59L14.59,10H6.5C4,10 2,12 2,14.5C2,17 4,19 6.5,19C8.72,19 10.56,17.38 10.92,15.27L13.04,14C13,14.17 13,14.33 13,14.5C13,17 15,19 17.5,19C20,19 22,17 22,14.5C22,12 20,10 17.5,10M8.84,15.26C8.5,16.27 7.58,17 6.47,17C5.09,17 3.97,15.88 3.97,14.5C3.97,13.12 5.09,12 6.47,12C7.59,12 8.5,12.74 8.84,13.75H6V15.25L8.84,15.26M17.47,17C16.09,17 14.97,15.88 14.97,14.5C14.97,13.12 16.09,12 17.47,12A2.5,2.5 0 0,1 19.97,14.5A2.5,2.5 0 0,1 17.47,17Z" /></svg>
